src/static/logos/shogun.svg

<svg width="256" height="121" xmlns="http://www.w3.org/2000/svg" preserveAspectRatio="xMidYMid"><path d="M128.162 0L82.847 34.012l-7.888-9.783-63.132-12.2 46.942 40.055L0 96.195l127.805 24.743.355.07L256 96.195l-58.678-44.154 47.379-40.428-63.13 12.199-8.218 10.193L128.162 0zM85.201 36.931l41.086-30.838V57.58l-17.274 8.883-23.812-29.532zm44.833 20.861V6.098l40.965 30.825-23.884 29.622-17.081-8.753zm20.815 10.092l32.778-40.653 47.83-9.243-66.716 56.927-13.892-7.031zM25.073 18.405l47.829 9.243 32.708 40.566-13.83 7.112-66.707-56.921zm142.789 58.773l26.539-22.646 39.435 29.674-43.063 4.713-22.911-11.741zM21.927 84.422l39.764-29.846 26.487 22.602-23.061 11.858-43.19-4.614zm49.974 5.339l20.27-10.423 19.333-9.785-.09-.111 14.873-7.649v33.778l-54.386-5.81zm58.133-27.758l53.968 27.657-53.968 5.906V62.003zm0 37.333L238.21 87.497l8.802 6.624-116.978 22.705v-17.49zM9.005 94.121l8.528-6.401 108.754 11.619v17.488L9.005 94.121z" fill="#26A6FF"/></svg>

<?xml version="1.0" encoding="UTF-8" standalone="no"?>
<svg width="256px" height="121px" viewBox="0 0 256 121" version="1.1" xmlns="http://www.w3.org/2000/svg" xmlns:xlink="http://www.w3.org/1999/xlink" preserveAspectRatio="xMidYMid">
    <g>
        <path d="M128.162,0 L82.847,34.012 L74.959,24.229 L11.827,12.029 L58.769,52.084 L0,96.195 L127.805,120.938 L128.16,121.008 L256,96.195 L197.322,52.041 L244.701,11.613 L181.571,23.812 L173.353,34.005 L128.162,0 Z M85.201,36.931 L126.287,6.093 L126.287,57.58 L109.013,66.463 L85.201,36.931 Z M130.034,57.792 L130.034,6.098 L170.999,36.923 L147.115,66.545 L130.034,57.792 Z M150.849,67.884 L183.627,27.231 L231.457,17.988 L164.741,74.915 L150.849,67.884 Z M25.073,18.405 L72.902,27.648 L105.61,68.214 L91.78,75.326 L25.073,18.405 Z M167.862,77.178 L194.401,54.532 L233.836,84.206 L190.773,88.919 L167.862,77.178 Z M21.927,84.422 L61.691,54.576 L88.178,77.178 L65.117,89.036 L21.927,84.422 Z M71.901,89.761 L92.171,79.338 L111.504,69.553 L111.414,69.442 L126.287,61.793 L126.287,95.571 L71.901,89.761 Z M130.034,62.003 L184.002,89.66 L130.034,95.566 L130.034,62.003 Z M130.034,99.336 L238.21,87.497 L247.012,94.121 L130.034,116.826 L130.034,99.336 Z M9.005,94.121 L17.533,87.72 L126.287,99.339 L126.287,116.827 L9.005,94.121 Z" fill="#26A6FF"></path>
    </g>
</svg>
